src/images/networks/rootstock.svg

<svg width="27" height="29" viewBox="0 0 27 29" fill="none" xmlns="http://www.w3.org/2000/svg">
<path class='bg' d="M13.1908 7.96035C15.406 7.96035 17.2019 6.17836 17.2019 3.98018C17.2019 1.78199 15.406 0 13.1908 0C10.9755 0 9.17969 1.78199 9.17969 3.98018C9.17969 6.17836 10.9755 7.96035 13.1908 7.96035Z" fill="#FF9100"/>
<path class='bg' d="M24.3381 16.2811C22.4197 15.1851 19.9636 15.8339 18.8591 17.7375C18.4813 18.3864 18.3069 19.1076 18.3214 19.8142C18.365 21.5736 16.7664 22.482 15.2549 21.5735C15.1968 21.5446 15.1387 21.5014 15.066 21.4725C13.5401 20.6217 13.5401 18.8192 15.066 17.9828C16.3159 17.305 17.1733 15.9927 17.1733 14.4785C17.1733 14.4496 17.1733 14.4208 17.1733 14.392C17.1297 12.6326 18.7283 11.7241 20.2398 12.6326C21.446 13.3681 23.0156 13.4258 24.3235 12.6759C26.2419 11.5799 26.8959 9.14269 25.7914 7.23913C24.6869 5.33557 22.2308 4.68663 20.3124 5.78262C19.0045 6.53251 18.2778 7.91692 18.3069 9.31575C18.3505 11.0751 16.7518 11.9837 15.2549 11.0751C14.6446 10.7002 13.9324 10.4839 13.1622 10.4839C12.3919 10.4839 11.6798 10.7002 11.0694 11.0607C9.55804 11.9548 7.97394 11.0463 8.01754 9.30132C8.04661 7.88808 7.31996 6.51809 6.01199 5.7682C4.09363 4.67221 1.63756 5.33557 0.533052 7.23913C-0.571454 9.14269 0.0970625 11.5799 2.01542 12.6759C3.32339 13.4258 4.89295 13.3536 6.09919 12.6326C7.61062 11.7241 9.19471 12.6326 9.15111 14.392C9.15111 14.4208 9.15111 14.4496 9.15111 14.4785C9.15111 15.9927 9.99403 17.305 11.2584 17.9828C12.7843 18.8336 12.7843 20.6361 11.2584 21.4725C11.2002 21.5014 11.1421 21.5446 11.084 21.5735C9.57257 22.4676 7.98847 21.5591 8.03207 19.8142C8.04661 19.1076 7.87221 18.3865 7.49435 17.7232C6.38985 15.8196 3.93377 15.1707 2.01542 16.2667C0.0970625 17.3915 -0.556921 19.8285 0.547585 21.7321C1.65209 23.6357 4.10817 24.2847 6.02652 23.1887C6.05559 23.1743 6.07012 23.1598 6.09919 23.1453C7.61062 22.2368 9.19471 23.1453 9.15111 24.9047C9.15111 24.9335 9.15111 24.9624 9.15111 25.0056C9.15111 27.1976 10.9532 28.9858 13.1622 28.9858C15.3712 28.9858 17.1733 27.1976 17.1733 25.0056C17.1733 24.9768 17.1733 24.948 17.1733 24.9191C17.1297 23.1598 18.7283 22.2513 20.2398 23.1598C20.2688 23.1742 20.2979 23.1887 20.327 23.2176C22.2453 24.3135 24.7014 23.6646 25.8059 21.761C26.9104 19.8142 26.2564 17.3771 24.3381 16.2811Z" fill="#FF9100"/>
</svg>

<svg xmlns="http://www.w3.org/2000/svg" width="27" height="29" fill="none"><path fill="#FF9100" d="M13.19 7.96c2.216 0 4.012-1.782 4.012-3.98S15.406 0 13.19 0C10.975 0 9.18 1.782 9.18 3.98s1.796 3.98 4.01 3.98" class="bg"/><path fill="#FF9100" d="M24.338 16.281c-1.918-1.096-4.374-.447-5.479 1.457a3.96 3.96 0 0 0-.538 2.076c.044 1.76-1.555 2.668-3.066 1.76-.058-.03-.116-.073-.189-.102-1.526-.85-1.526-2.653 0-3.49 1.25-.677 2.107-1.99 2.107-3.503v-.087c-.043-1.76 1.555-2.668 3.067-1.76a4.02 4.02 0 0 0 4.084.044 3.965 3.965 0 0 0 1.467-5.437c-1.104-1.903-3.56-2.552-5.479-1.456a3.99 3.99 0 0 0-2.005 3.533c.044 1.76-1.555 2.668-3.052 1.76a3.97 3.97 0 0 0-2.093-.592 4.1 4.1 0 0 0-2.093.577c-1.511.894-3.095-.015-3.051-1.76a3.97 3.97 0 0 0-2.006-3.533A4.034 4.034 0 0 0 .533 7.24C-.57 9.143.097 11.58 2.015 12.676a4.05 4.05 0 0 0 4.084-.043c1.512-.909 3.096 0 3.052 1.759v.087c0 1.514.843 2.826 2.107 3.504 1.526.85 1.526 2.653 0 3.49-.058.028-.116.072-.174.1-1.511.895-3.096-.014-3.052-1.759a4.05 4.05 0 0 0-.538-2.09c-1.104-1.904-3.56-2.553-5.479-1.457C.097 17.392-.557 19.828.548 21.732s3.56 2.553 5.479 1.457c.029-.015.043-.03.072-.044 1.512-.908 3.096 0 3.052 1.76v.1c0 2.193 1.802 3.98 4.011 3.98s4.011-1.787 4.011-3.98v-.086c-.043-1.76 1.555-2.668 3.067-1.76a.3.3 0 0 1 .087.059c1.918 1.096 4.374.447 5.479-1.457 1.104-1.947.45-4.384-1.468-5.48" class="bg"/></svg>
